X:12344
T:Old King's Reel
R:Reel
S:Sandy MacIntyre
Z:abc transcription wil macaulay wil@syndesis.com
Z:http://www.interlog.com/~torocelt/tuneofthemonth.html
A:Cape Breton
M:C|
L:1/8
K:Am
A| E<A,A,B, A,2 A,A | E<A,E^F GEDB, | A,<A,A,B, C2 CD | EGDC B,G,G,A |
E<A,A,B, A,G,A,B, | A,/A,/A, A,^F GEDB, | A,<A,A,B, C/C/C CD| EGDC B,G,G,||
d | ^cA A/A/A cded | ^cABc dBGB | BeAB =c3 e | gage d^cBe |
^cA A/A/A cded | ^cABc dcBd | =c2 BG AcBA | GEDC B,G, G, ||
